X: 1
T: Sadie at the Back Door
C: Jere Canote
N: Note from Walter Daves <walterdaves:alltel.net>
N: Sadie was (is) his cat, who would meow at the front door
N: to get out, and then meow at the back door to get in.
M: 4/4
L: 1/8
R: reel
P: ABAB
K: D
|: "D"agfe d4 | ag f/2e/2d"C"=c2e2 | "D"ag f/2e/2d "C"=c2B2 | "C"=c2(B/2=c/2)BAF "D"D2 :|
|: "D"FFD2 FFD2 | "C"=cBAF "D"D4 | "D"FFD2 "C"=c2B2 |1 "C"=c2(B/2=c/2)BAF "D"D2 :|2 "C"f2d2 AF "D"D2 |]
